storage/app/icons/tabler/filled/circle-number-9.svg

<!--
version: "2.4"
unicode: "f738"
-->
<svg
  xmlns="http://www.w3.org/2000/svg"
  width="24"
  height="24"
  viewBox="0 0 24 24"
  fill="currentColor"
>
  <path d="M12 2c5.523 0 10 4.477 10 10s-4.477 10 -10 10s-10 -4.477 -10 -10s4.477 -10 10 -10zm1 5h-2l-.15 .005a2 2 0 0 0 -1.844 1.838l-.006 .157v2l.005 .15a2 2 0 0 0 1.838 1.844l.157 .006h2v2h-2l-.007 -.117a1 1 0 0 0 -1.993 .117a2 2 0 0 0 1.85 1.995l.15 .005h2l.15 -.005a2 2 0 0 0 1.844 -1.838l.006 -.157v-6l-.005 -.15a2 2 0 0 0 -1.838 -1.844l-.157 -.006zm0 2v2h-2v-2h2z" />
</svg>

<svg xmlns="http://www.w3.org/2000/svg" width="24" height="24" fill="currentColor" viewBox="0 0 24 24"><path d="M12 2c5.523 0 10 4.477 10 10s-4.477 10-10 10S2 17.523 2 12 6.477 2 12 2m1 5h-2l-.15.005a2 2 0 0 0-1.844 1.838L9 9v2l.005.15a2 2 0 0 0 1.838 1.844L11 13h2v2h-2l-.007-.117A1 1 0 0 0 9 15a2 2 0 0 0 1.85 1.995L11 17h2l.15-.005a2 2 0 0 0 1.844-1.838L15 15V9l-.005-.15a2 2 0 0 0-1.838-1.844zm0 2v2h-2V9z"/></svg>
